X:112
T:Britches Full of Stitches
L:1/8
M:2/4
R:Polka
K:A
A>B cA | BA cA | A>B cA | BA F2 |
A>B cA | BA ce | A>B AF | FE E2 :|
e>f ec | BA Bc | A>B AF | FE E2 :|
|: e>f ec | BA Bc | e>f ec | BA F2 |

%%newpage
%%scale .7
%%staffsep 35

